Desktop/project_createx/public/images/header/illustration.svg

<svg width="591" height="526" viewBox="0 0 591 526" fill="none" xmlns="http://www.w3.org/2000/svg">
<path d="M73.6914 305.62L155.261 378.926L191.464 526L250.481 511.674L240.595 501.14C240.595 501.14 238.325 279.96 142.551 244.445" fill="#B3B7BC"/>
<rect x="28.6289" y="303.758" width="92.0203" height="33.1093" rx="16.5546" fill="#00F0B5"/>
<path d="M104.148 336.866H45.1279" stroke="#1E212C" stroke-width="1.5" stroke-linecap="round" stroke-linejoin="round"/>
<path d="M79.3867 63.769V91.0333L113.05 99.3348V53.325L79.3867 45.0234V63.769Z" fill="#D7DADD"/>
<path d="M83.2517 77.6107C82.9525 77.9849 82.8716 78.4896 83.0388 78.9391C83.2061 79.3886 83.5967 79.7166 84.0672 79.8026C85.9507 80.4605 89.3145 76.9814 91.6039 79.3544C91.6039 79.3544 92.5093 76.4861 98.6049 78.9732C104.7 81.4603 103.02 77.0371 103.02 77.0371" stroke="white" stroke-width="1.5" stroke-linecap="round" stroke-linejoin="round"/>
<path d="M98.404 73.2026C98.9011 73.2026 99.3041 72.7983 99.3041 72.2996C99.3041 71.8008 98.9011 71.3965 98.404 71.3965C97.9069 71.3965 97.5039 71.8008 97.5039 72.2996C97.5039 72.7983 97.9069 73.2026 98.404 73.2026Z" fill="#1E212C"/>
<path d="M84.5808 73.2026C85.0779 73.2026 85.4808 72.7983 85.4808 72.2996C85.4808 71.8008 85.0779 71.3965 84.5808 71.3965C84.0836 71.3965 83.6807 71.8008 83.6807 72.2996C83.6807 72.7983 84.0836 73.2026 84.5808 73.2026Z" fill="#1E212C"/>
<path d="M88.6327 77.6869V63.7695H81.6836" stroke="#1E212C" stroke-width="1.5" stroke-linecap="round" stroke-linejoin="round"/>
<path d="M100.097 63.7695H93.1484" stroke="#1E212C" stroke-width="1.5" stroke-linecap="round" stroke-linejoin="round"/>
<path d="M110.836 70.9008V75.7337C113.434 75.7337 115.541 73.6203 115.541 71.0133C115.541 70.8685 115.534 70.7253 115.522 70.5837C115.258 67.6525 110.836 67.9577 110.836 70.9008Z" fill="#E5E8ED"/>
<path d="M110.836 75.733C113.434 75.733 115.541 73.6197 115.541 71.0127" stroke="#1E212C" stroke-width="1.5" stroke-linecap="round" stroke-linejoin="round"/>
<path d="M102.254 96.6729L113.05 99.3351" stroke="#1E212C" stroke-width="1.5" stroke-linecap="round" stroke-linejoin="round"/>
<path d="M88.6367 77.6973L91.676 78.4468" stroke="#1E212C" stroke-width="1.5" stroke-linecap="round" stroke-linejoin="round"/>
<path d="M79.3868 74.6456C79.3868 74.6456 71.5652 91.4125 83.6782 96.7185C95.7912 102.025 113.077 88.6336 110.833 73.2031" stroke="white" stroke-width="1.5" stroke-linecap="round" stroke-linejoin="round"/>
<path d="M78.1289 56.2861C78.1289 56.2861 80.8157 61.2831 90.1551 61.4907V58.4085C94.2954 60.9553 99.082 62.2453 103.937 62.1227V59.682C103.937 59.682 109.754 66.2374 105.1 71.3962" stroke="white" stroke-width="1.5" stroke-linecap="round" stroke-linejoin="round"/>
<path d="M92.3125 83.0711C94.2654 83.0711 95.8485 81.4828 95.8485 79.5234" stroke="#1E212C" stroke-width="1.5" stroke-linecap="round" stroke-linejoin="round"/>
<path d="M79.3912 69.9227C79.3912 69.9227 65.7904 46.3642 80.6079 43.499C95.4254 40.6338 105.579 47.3193 105.579 47.3193C105.579 47.3193 127.987 51.8799 113.055 68.5419" stroke="white" stroke-width="1.5" stroke-linecap="round" stroke-linejoin="round"/>
<path d="M51.1641 148.158V221.911L155.301 247.59V165.45C155.301 136.324 135.483 110.961 107.292 104.01H107.292C93.7723 100.676 79.4759 103.762 68.5198 112.38C57.5637 120.998 51.1641 134.19 51.1641 148.158V148.158Z" fill="#00F0B5"/>
<path d="M51.169 221.91C51.169 221.91 33.0744 347.69 166.345 327.636L166.98 433.362H231.444L221.557 424.733C221.557 424.733 278.673 266.827 155.306 247.59" fill="#D7DADD"/>
<path d="M166.976 433.361H231.44" stroke="#1E212C" stroke-width="1.5" stroke-linecap="round" stroke-linejoin="round"/>
<path d="M51.169 221.91C51.169 221.91 33.0744 347.69 166.345 327.636L166.98 433.362" stroke="#1E212C" stroke-width="1.5" stroke-linecap="round" stroke-linejoin="round"/>
<path d="M1 433.139H155.257" stroke="white" stroke-width="1.5" stroke-linecap="round" stroke-linejoin="round"/>
<path d="M74.6899 336.754V432.953" stroke="white" stroke-width="1.5" stroke-linecap="round" stroke-linejoin="round"/>
<path d="M73.6912 108.859C73.6912 108.859 30.5351 133.754 36.0351 193.606C41.5352 253.457 136.25 216.103 162.086 197.426C162.086 197.426 176.073 187.156 172.688 170.398L180.806 164.9L178.614 160.072L81.6893 175.133L85.4825 151.583" stroke="white" stroke-width="1.5" stroke-linecap="round" stroke-linejoin="round"/>
<path d="M55.1104 222.374C62.6872 234.096 84.8137 239.125 108.693 233.626C130.169 228.681 146.663 216.694 151.021 204.246C126.179 217.782 80.8967 233.581 55.1104 222.374Z" fill="#1E212C"/>
<path d="M121.227 109.256L185.378 138.847C185.378 138.847 200.185 80.1716 217.532 77.0366C234.878 73.9016 234.753 75.7327 234.753 75.7327L233.769 80.3378L225.521 83.0706C225.521 83.0706 229.378 102.156 219.224 102.673C219.224 102.673 250.755 218.193 153.758 202.715" stroke="white" stroke-width="1.5" stroke-linecap="round" stroke-linejoin="round"/>
<path d="M486.796 225.83L324.633 170.54L345.298 86.9248L519.601 93.2696L486.796 225.83Z" fill="#B3B7BC"/>
<path d="M398.092 350.232L218.199 224.696L324.633 170.426L486.796 225.829L398.092 350.232Z" fill="#E5E8ED"/>
<path d="M396.796 304.347L264.39 219.202L265.914 218.636L397.474 303.214L396.796 304.347Z" fill="#1E212C"/>
<path d="M415.429 279.704L284.151 207.702L285.45 206.909L416.445 278.514L415.429 279.704Z" fill="#1E212C"/>
<path d="M433.554 257.667L304.761 197.392L306.003 196.542L434.288 256.591L433.554 257.667Z" fill="#1E212C"/>
<path d="M452.019 234.894L322.604 185.269L323.96 184.419L453.035 233.648L452.019 234.894Z" fill="#1E212C"/>
<path d="M270.542 237.443L269.074 236.65L348.292 190.764L349.93 191.33L270.542 237.443Z" fill="#1E212C"/>
<path d="M304.481 260.104L303.069 259.367L374.496 199.545L375.964 199.998L304.481 260.104Z" fill="#1E212C"/>
<path d="M339.651 283.897L338.409 283.104L405.544 210.762L406.956 211.102L339.651 283.897Z" fill="#1E212C"/>
<path d="M375.736 307.802L374.776 307.009L442.024 224.924L443.266 225.377L375.736 307.802Z" fill="#1E212C"/>
<path d="M527.845 88.8505C527.675 88.7372 527.449 88.6805 527.223 88.6805L365.343 83.5254H365.286L345.298 86.9244L350.888 87.151L365.343 84.8283L525.304 89.9268L519.657 93.2691L519.262 94.9686L526.659 90.4367L490.409 238.293L486.909 225.66L327.512 171.389L325.875 172.239L486.005 226.963L489.675 240.955L397.075 371.533L399.108 348.76L398.092 350.233L396.003 373.176L220.232 241.975L219.554 225.66L218.199 224.697L218.99 242.655L396.003 375.045L491.03 241.238L528.127 89.6436C528.183 89.3603 528.07 89.0771 527.845 88.8505Z" fill="white"/>
<path d="M369.356 156.508C367.828 156.092 366.351 155.516 364.949 154.788C363.593 154.099 362.322 153.26 361.159 152.288C360.044 151.405 359.025 150.411 358.118 149.32C357.234 148.226 356.493 147.025 355.912 145.747L367.885 138.248C368.406 139.696 369.212 141.027 370.258 142.164C371.359 143.388 372.79 144.277 374.385 144.729C375.088 144.918 375.827 144.946 376.544 144.809C376.906 144.747 377.244 144.591 377.524 144.356C377.804 144.121 378.014 143.816 378.134 143.474C378.299 143.122 378.341 142.727 378.255 142.35C378.127 141.91 377.895 141.508 377.576 141.175C377.076 140.595 376.514 140.07 375.899 139.609C375.176 138.995 374.244 138.27 373.099 137.403C372.016 136.572 371.016 135.643 370.11 134.627C369.201 133.656 368.473 132.533 367.961 131.31C367.461 129.996 367.222 128.599 367.257 127.195C367.363 125.413 367.796 123.664 368.535 122.033C369.508 119.585 371.007 117.372 372.928 115.549C374.594 114 376.54 112.775 378.663 111.938C380.675 111.165 382.813 110.764 384.969 110.756C387.016 110.732 389.056 110.981 391.035 111.494C393.612 112.233 395.997 113.513 398.026 115.245C400.175 117.051 401.854 119.339 402.923 121.918L390.991 128.825C390.685 127.44 389.986 126.171 388.974 125.168C388.151 124.292 387.105 123.651 385.944 123.311C385.148 123.06 384.302 122.998 383.476 123.131C383.14 123.2 382.826 123.352 382.564 123.573C382.302 123.793 382.101 124.075 381.978 124.392C381.812 124.663 381.738 124.98 381.769 125.295C381.801 125.61 381.934 125.907 382.151 126.14C382.885 126.869 383.681 127.534 384.532 128.127C385.71 128.99 386.897 129.951 388.13 131.038C389.361 132.099 390.421 133.338 391.274 134.714C392.123 136.148 392.653 137.745 392.829 139.398C392.946 141.446 392.557 143.493 391.696 145.363C390.71 147.77 389.25 149.96 387.399 151.805C385.753 153.425 383.815 154.727 381.686 155.642C379.693 156.521 377.556 157.033 375.379 157.152C373.349 157.252 371.316 157.035 369.356 156.508Z" fill="white"/>
<path d="M408.679 117.427L434.978 124.758L429.886 137.032L415.641 133.077L414.076 136.846L427.411 140.559L422.735 152.062L409.235 148.332L407.54 152.445L422.662 156.643L417.57 168.917L390.361 161.344L408.679 117.427Z" fill="white"/>
<path d="M430.584 147.805C431.947 144.493 433.883 141.443 436.304 138.794C438.434 136.389 440.977 134.378 443.814 132.857C449.276 129.939 455.655 129.223 461.626 130.858C464.486 131.593 467.153 132.93 469.448 134.778C471.555 136.491 473.221 138.679 474.307 141.161C475.431 143.811 475.94 146.68 475.797 149.555C475.624 152.962 474.835 156.312 473.469 159.444C472.078 162.76 470.148 165.827 467.756 168.52C465.604 170.997 463.021 173.068 460.131 174.633C457.417 176.136 454.44 177.112 451.36 177.508C448.294 177.88 445.185 177.653 442.207 176.841C439.349 176.105 436.689 174.755 434.415 172.884C432.321 171.108 430.683 168.861 429.637 166.329C428.569 163.604 428.1 160.682 428.263 157.76C428.422 154.33 429.209 150.957 430.584 147.805ZM444.172 151.547C443.62 152.851 443.255 154.225 443.088 155.63C442.988 156.813 443.106 158.003 443.434 159.143C443.727 160.152 444.273 161.07 445.02 161.811C445.786 162.541 446.724 163.069 447.749 163.347C448.832 163.626 449.964 163.659 451.063 163.445C452.198 163.213 453.277 162.76 454.236 162.111C455.389 161.405 456.418 160.515 457.28 159.476C458.184 158.326 458.926 157.058 459.486 155.709C460.044 154.432 460.401 153.078 460.543 151.694C460.665 150.599 460.556 149.491 460.222 148.441C459.895 147.476 459.332 146.606 458.584 145.91C457.825 145.179 456.885 144.661 455.859 144.407C454.776 144.12 453.644 144.064 452.538 144.244C451.414 144.459 450.336 144.866 449.352 145.448C448.285 146.133 447.342 146.993 446.563 147.991C445.641 149.057 444.879 150.251 444.303 151.534L444.172 151.547Z" fill="white"/>
<path d="M338.303 49.575L271.483 66.9937L258.645 17.418L259.857 17.102L272.38 65.4593L337.987 48.3566L338.303 49.575Z" fill="#E5E8ED"/>
<path d="M284.155 37.2291L276.294 39.2783L282.422 62.9395L290.283 60.8902L284.155 37.2291Z" fill="#E5E8ED"/>
<path d="M297.105 22.4273L289.244 24.4766L298.144 58.8416L306.005 56.7923L297.105 22.4273Z" fill="#E5E8ED"/>
<path d="M313.178 10.4195L305.317 12.4688L316.114 54.1574L323.975 52.1082L313.178 10.4195Z" fill="#E5E8ED"/>
<path d="M466.06 387.064C466.056 394.229 468.139 401.238 472.054 407.23C475.969 413.222 481.544 417.936 488.093 420.791C494.643 423.645 501.881 424.517 508.918 423.298C515.955 422.08 522.483 418.824 527.7 413.932C532.917 409.039 536.595 402.724 538.281 395.762C539.967 388.8 539.588 381.495 537.19 374.747C534.793 367.998 530.481 362.1 524.786 357.777C519.091 353.455 512.261 350.897 505.136 350.418V387.064H466.06Z" fill="#00F0B5"/>
<path d="M462.096 382.799H501.172V346.113C500.385 346.05 499.55 346.026 498.732 346.026C493.919 346.026 489.154 346.978 484.708 348.826C480.262 350.674 476.223 353.383 472.82 356.798C469.418 360.213 466.72 364.267 464.88 368.728C463.04 373.189 462.093 377.971 462.096 382.799Z" fill="#D7DADD"/>
<path d="M545.027 237.579L586.583 223.727L575.963 191.794L568.352 187.876L532.475 199.835L545.027 237.579Z" fill="#B3B7BC"/>
<path d="M545.59 237.861L590.131 223.014C590.197 222.992 590.251 222.945 590.282 222.884C590.312 222.822 590.317 222.75 590.296 222.685L578.913 188.458C578.89 188.394 578.845 188.341 578.786 188.309L570.629 184.115C570.567 184.083 570.494 184.077 570.428 184.098L531.973 196.917C531.908 196.939 531.853 196.985 531.823 197.047C531.792 197.109 531.787 197.181 531.809 197.246L545.263 237.702C545.274 237.734 545.291 237.764 545.313 237.789C545.336 237.815 545.363 237.836 545.393 237.85C545.424 237.865 545.457 237.874 545.491 237.876C545.524 237.878 545.558 237.873 545.59 237.861ZM589.721 222.602L545.694 237.278L532.403 197.316L570.483 184.623L578.454 188.724L589.721 222.602Z" fill="white"/>
<path d="M539.242 205.956L575.961 193.716C576.026 193.694 576.08 193.647 576.111 193.586C576.142 193.524 576.147 193.452 576.125 193.387C576.103 193.321 576.056 193.267 575.995 193.236C575.933 193.205 575.862 193.2 575.796 193.222L539.078 205.462C539.012 205.483 538.958 205.53 538.928 205.592C538.897 205.654 538.892 205.725 538.914 205.791C538.935 205.856 538.982 205.911 539.044 205.942C539.105 205.973 539.177 205.978 539.242 205.956Z" fill="white"/>
<path d="M541.2 211.836L577.919 199.596C577.984 199.574 578.038 199.527 578.069 199.466C578.1 199.404 578.105 199.332 578.083 199.267C578.061 199.201 578.015 199.147 577.953 199.116C577.891 199.085 577.82 199.08 577.755 199.102L541.036 211.341C540.97 211.363 540.916 211.41 540.886 211.472C540.855 211.534 540.85 211.605 540.872 211.671C540.893 211.736 540.94 211.791 541.002 211.822C541.064 211.852 541.135 211.858 541.2 211.836Z" fill="white"/>
<path d="M543.138 217.672L579.856 205.432C579.922 205.41 579.976 205.363 580.007 205.302C580.037 205.24 580.042 205.168 580.021 205.103C579.999 205.037 579.952 204.983 579.89 204.952C579.829 204.921 579.757 204.916 579.692 204.938L542.973 217.177C542.908 217.199 542.854 217.246 542.823 217.308C542.792 217.37 542.787 217.441 542.809 217.507C542.831 217.572 542.878 217.627 542.939 217.658C543.001 217.689 543.072 217.694 543.138 217.672Z" fill="white"/>
<path d="M545.086 223.529L581.805 211.29C581.87 211.268 581.924 211.221 581.955 211.159C581.986 211.097 581.991 211.026 581.969 210.96C581.959 210.927 581.942 210.897 581.92 210.87C581.898 210.844 581.87 210.823 581.84 210.807C581.809 210.792 581.775 210.783 581.741 210.781C581.707 210.779 581.673 210.784 581.64 210.795L544.921 223.035C544.888 223.045 544.858 223.062 544.831 223.084C544.805 223.106 544.783 223.134 544.767 223.165C544.751 223.195 544.742 223.229 544.739 223.264C544.737 223.298 544.741 223.333 544.752 223.366C544.775 223.432 544.823 223.485 544.886 223.516C544.948 223.546 545.02 223.551 545.086 223.529Z" fill="white"/>
<path d="M547.035 229.388L583.754 217.148C583.786 217.137 583.816 217.12 583.842 217.098C583.868 217.075 583.889 217.048 583.904 217.017C583.919 216.987 583.928 216.954 583.931 216.919C583.933 216.885 583.929 216.851 583.918 216.819C583.908 216.786 583.891 216.755 583.869 216.729C583.847 216.703 583.82 216.681 583.789 216.666C583.758 216.65 583.725 216.641 583.69 216.639C583.656 216.637 583.622 216.642 583.589 216.654L546.871 228.893C546.838 228.904 546.807 228.92 546.781 228.943C546.754 228.965 546.732 228.992 546.717 229.023C546.701 229.054 546.691 229.088 546.689 229.122C546.686 229.157 546.69 229.192 546.701 229.224C546.725 229.29 546.773 229.344 546.835 229.374C546.898 229.405 546.97 229.41 547.035 229.388Z" fill="white"/>
<path d="M572.665 190.739L578.655 188.742C578.712 188.714 578.757 188.665 578.781 188.606C578.805 188.547 578.808 188.481 578.787 188.421C578.767 188.36 578.726 188.309 578.671 188.276C578.616 188.243 578.552 188.232 578.489 188.243L572.745 190.157L570.66 184.208C570.634 184.144 570.586 184.092 570.524 184.062C570.462 184.032 570.391 184.026 570.325 184.045C570.261 184.069 570.209 184.118 570.18 184.18C570.151 184.242 570.147 184.313 570.168 184.378L572.336 190.574C572.359 190.639 572.406 190.692 572.468 190.723C572.529 190.754 572.6 190.759 572.665 190.739Z" fill="white"/>
</svg>

<svg xmlns="http://www.w3.org/2000/svg" width="591" height="526" fill="none"><path fill="#B3B7BC" d="m73.691 305.62 81.57 73.306L191.464 526l59.017-14.326-9.886-10.534s-2.27-221.18-98.044-256.695"/><rect width="92.02" height="33.109" x="28.629" y="303.758" fill="#00F0B5" rx="16.555"/><path stroke="#1E212C" stroke-linecap="round" stroke-linejoin="round" stroke-width="1.5" d="M104.148 336.866h-59.02"/><path fill="#D7DADD" d="M79.387 63.769v27.264l33.663 8.302v-46.01l-33.663-8.302z"/><path stroke="#fff" stroke-linecap="round" stroke-linejoin="round" stroke-width="1.5" d="M83.252 77.61c-.3.375-.38.88-.213 1.33.167.449.558.777 1.028.863 1.884.657 5.248-2.822 7.537-.449 0 0 .905-2.868 7-.38 6.096 2.486 4.416-1.937 4.416-1.937"/><path fill="#1E212C" d="M98.404 73.203c.497 0 .9-.405.9-.903a.9.9 0 0 0-.9-.903c-.497 0-.9.404-.9.903 0 .498.403.903.9.903M84.58 73.203c.498 0 .9-.405.9-.903a.9.9 0 0 0-.9-.903c-.496 0-.9.404-.9.903 0 .498.404.903.9.903"/><path stroke="#1E212C" stroke-linecap="round" stroke-linejoin="round" stroke-width="1.5" d="M88.633 77.687V63.77h-6.95M100.097 63.77h-6.949"/><path fill="#E5E8ED" d="M110.836 70.9v4.834c2.598 0 4.705-2.114 4.705-4.72q0-.218-.019-.43c-.264-2.931-4.686-2.626-4.686.317"/><path stroke="#1E212C" stroke-linecap="round" stroke-linejoin="round" stroke-width="1.5" d="M110.836 75.733a4.713 4.713 0 0 0 4.705-4.72M102.254 96.673l10.796 2.662M88.637 77.697l3.039.75"/><path stroke="#fff" stroke-linecap="round" stroke-linejoin="round" stroke-width="1.5" d="M79.387 74.646s-7.822 16.766 4.291 22.073c12.113 5.306 29.399-8.085 27.155-23.516M78.129 56.286s2.687 4.997 12.026 5.205v-3.083a25.1 25.1 0 0 0 13.782 3.715v-2.441s5.817 6.555 1.163 11.714"/><path stroke="#1E212C" stroke-linecap="round" stroke-linejoin="round" stroke-width="1.5" d="M92.313 83.071a3.54 3.54 0 0 0 3.535-3.548"/><path stroke="#fff" stroke-linecap="round" stroke-linejoin="round" stroke-width="1.5" d="M79.391 69.923s-13.6-23.559 1.217-26.424 24.971 3.82 24.971 3.82 22.408 4.56 7.476 21.223"/><path fill="#00F0B5" d="M51.164 148.158v73.753l104.137 25.679v-82.14c0-29.126-19.818-54.489-48.009-61.44a45.2 45.2 0 0 0-38.772 8.37c-10.956 8.618-17.356 21.81-17.356 35.778"/><path fill="#D7DADD" d="M51.169 221.91S33.074 347.69 166.345 327.636l.635 105.726h64.464l-9.887-8.629s57.116-157.906-66.251-177.143"/><path stroke="#1E212C" stroke-linecap="round" stroke-linejoin="round" stroke-width="1.5" d="M166.976 433.361h64.464M51.169 221.91S33.074 347.69 166.345 327.636l.635 105.726"/><path stroke="#fff" stroke-linecap="round" stroke-linejoin="round" stroke-width="1.5" d="M1 433.139h154.257M74.69 336.754v96.199M73.691 108.859s-43.156 24.895-37.656 84.747c5.5 59.851 100.215 22.497 126.051 3.82 0 0 13.987-10.27 10.602-27.028l8.118-5.498-2.192-4.828-96.925 15.061 3.794-23.55"/><path fill="#1E212C" d="M55.11 222.374c7.577 11.722 29.704 16.751 53.583 11.252 21.476-4.945 37.97-16.932 42.328-29.38-24.842 13.536-70.124 29.335-95.91 18.128"/><path stroke="#fff" stroke-linecap="round" stroke-linejoin="round" stroke-width="1.5" d="m121.227 109.256 64.151 29.591s14.807-58.675 32.154-61.81c17.346-3.135 17.221-1.304 17.221-1.304l-.984 4.605-8.248 2.733s3.857 19.085-6.297 19.602c0 0 31.531 115.52-65.466 100.042"/><path fill="#B3B7BC" d="m486.796 225.83-162.163-55.29 20.665-83.615 174.303 6.345z"/><path fill="#E5E8ED" d="M398.092 350.232 218.199 224.696l106.434-54.27 162.163 55.403z"/><path fill="#1E212C" d="M396.796 304.347 264.39 219.202l1.524-.566 131.56 84.578zM415.429 279.704l-131.278-72.002 1.299-.793 130.995 71.605zM433.554 257.667l-128.793-60.275 1.242-.85 128.285 60.049zM452.019 234.894l-129.415-49.625 1.356-.85 129.075 49.229z"/><path fill="#1E212C" d="m270.542 237.443-1.468-.793 79.218-45.886 1.638.566zM304.481 260.104l-1.412-.737 71.427-59.822 1.468.453zM339.651 283.897l-1.242-.793 67.135-72.342 1.412.34zM375.736 307.802l-.96-.793 67.248-82.085 1.242.453z"/><path fill="#fff" d="M527.845 88.85a1.14 1.14 0 0 0-.622-.17l-161.88-5.155h-.057l-19.988 3.4 5.59.226 14.455-2.323 159.961 5.099-5.647 3.342-.395 1.7 7.397-4.532-36.25 147.856-3.5-12.633-159.397-54.271-1.637.85 160.13 54.724 3.67 13.992-92.6 130.578 2.033-22.773-1.016 1.473-2.089 22.943-175.771-131.201-.678-16.315-1.355-.963.791 17.958 177.013 132.39 95.027-133.807 37.097-151.594c.056-.284-.057-.567-.282-.794"/><path fill="#fff" d="M369.356 156.508a22.2 22.2 0 0 1-4.407-1.72 20 20 0 0 1-3.79-2.5 20.5 20.5 0 0 1-3.041-2.968 16.7 16.7 0 0 1-2.206-3.573l11.973-7.499a11.6 11.6 0 0 0 2.373 3.916 8.76 8.76 0 0 0 4.127 2.565 4.8 4.8 0 0 0 2.159.08c.362-.062.7-.218.98-.453s.49-.54.61-.882c.165-.352.207-.747.121-1.124a2.85 2.85 0 0 0-.679-1.175c-.5-.58-1.062-1.105-1.677-1.566-.723-.614-1.655-1.339-2.8-2.206a21.7 21.7 0 0 1-2.989-2.776 11.2 11.2 0 0 1-2.149-3.317 10.8 10.8 0 0 1-.704-4.115 14.6 14.6 0 0 1 1.278-5.162 18.2 18.2 0 0 1 4.393-6.484 18.3 18.3 0 0 1 5.735-3.611 17.8 17.8 0 0 1 6.306-1.182 23 23 0 0 1 6.066.738 18.7 18.7 0 0 1 6.991 3.751 17.45 17.45 0 0 1 4.897 6.673l-11.932 6.907a7.4 7.4 0 0 0-2.017-3.657 6.76 6.76 0 0 0-3.03-1.857 5.4 5.4 0 0 0-2.468-.18 2.06 2.06 0 0 0-1.498 1.261c-.166.271-.24.588-.209.903.032.315.165.612.382.845.734.729 1.53 1.394 2.381 1.987a51 51 0 0 1 3.598 2.911 16 16 0 0 1 3.144 3.676 11.6 11.6 0 0 1 1.555 4.684 12.55 12.55 0 0 1-1.133 5.965 19.6 19.6 0 0 1-4.297 6.442 18.6 18.6 0 0 1-5.713 3.837 18.1 18.1 0 0 1-6.307 1.51c-2.03.1-4.063-.117-6.023-.644M408.679 117.427l26.299 7.331-5.092 12.274-14.245-3.955-1.565 3.769 13.335 3.713-4.676 11.503-13.5-3.73-1.695 4.113 15.122 4.198-5.092 12.274-27.209-7.573zM430.584 147.805a30.7 30.7 0 0 1 5.72-9.011 27.2 27.2 0 0 1 7.51-5.937 24.23 24.23 0 0 1 17.812-1.999 20.7 20.7 0 0 1 7.822 3.92 17 17 0 0 1 4.859 6.383 19.1 19.1 0 0 1 1.49 8.394 28.3 28.3 0 0 1-2.328 9.889 32.7 32.7 0 0 1-5.713 9.076 27.4 27.4 0 0 1-7.625 6.113 24.6 24.6 0 0 1-8.771 2.875 23.9 23.9 0 0 1-9.153-.667 20.2 20.2 0 0 1-7.792-3.957 17.2 17.2 0 0 1-4.778-6.555 20.4 20.4 0 0 1-1.374-8.569c.159-3.43.946-6.803 2.321-9.955m13.588 3.742a15 15 0 0 0-1.084 4.083 9.7 9.7 0 0 0 .346 3.513 6.2 6.2 0 0 0 1.586 2.668 6.4 6.4 0 0 0 2.729 1.536 7.5 7.5 0 0 0 3.314.098 8.8 8.8 0 0 0 3.173-1.334 12.3 12.3 0 0 0 3.044-2.635 16 16 0 0 0 2.206-3.767 13.5 13.5 0 0 0 1.057-4.015 7.9 7.9 0 0 0-.321-3.253 6.16 6.16 0 0 0-1.638-2.531 6 6 0 0 0-2.725-1.503 8 8 0 0 0-3.321-.163 9.9 9.9 0 0 0-3.186 1.204 11.2 11.2 0 0 0-2.789 2.543 14.5 14.5 0 0 0-2.26 3.543z"/><path fill="#E5E8ED" d="m338.303 49.575-66.82 17.419-12.838-49.576 1.212-.316 12.523 48.357 65.607-17.102z"/><path fill="#E5E8ED" d="m284.155 37.23-7.861 2.048 6.128 23.662 7.861-2.05zM297.105 22.427l-7.861 2.05 8.9 34.365 7.861-2.05zM313.178 10.42l-7.861 2.049 10.797 41.688 7.861-2.049z"/><path fill="#00F0B5" d="M466.06 387.064a36.83 36.83 0 0 0 5.994 20.166 36.67 36.67 0 0 0 16.039 13.561 36.5 36.5 0 0 0 20.825 2.507 36.6 36.6 0 0 0 18.782-9.366 36.78 36.78 0 0 0 10.581-18.17 36.86 36.86 0 0 0-1.091-21.015 36.74 36.74 0 0 0-12.404-16.97 36.56 36.56 0 0 0-19.65-7.359v36.646z"/><path fill="#D7DADD" d="M462.096 382.799h39.076v-36.686a31 31 0 0 0-2.44-.087c-4.813 0-9.578.952-14.024 2.8a36.6 36.6 0 0 0-11.888 7.972 36.8 36.8 0 0 0-7.94 11.93 36.85 36.85 0 0 0-2.784 14.071"/><path fill="#B3B7BC" d="m545.027 237.579 41.556-13.852-10.62-31.933-7.611-3.918-35.877 11.959z"/><path fill="#fff" d="m545.59 237.861 44.541-14.847a.26.26 0 0 0 .151-.13.27.27 0 0 0 .014-.199l-11.383-34.227a.27.27 0 0 0-.127-.149l-8.157-4.194a.27.27 0 0 0-.201-.017l-38.455 12.819a.26.26 0 0 0-.164.329l13.454 40.456a.26.26 0 0 0 .13.148.241.241 0 0 0 .197.011m44.131-15.259-44.027 14.676-13.291-39.962 38.08-12.693 7.971 4.101z"/><path fill="#fff" d="m539.242 205.956 36.719-12.24a.26.26 0 0 0 .034-.48.26.26 0 0 0-.199-.014l-36.718 12.24a.26.26 0 0 0-.164.329.26.26 0 0 0 .328.165M541.2 211.836l36.719-12.24a.26.26 0 0 0 .034-.48.26.26 0 0 0-.198-.014l-36.719 12.239a.26.26 0 0 0-.164.33.26.26 0 0 0 .328.165M543.138 217.672l36.718-12.24a.26.26 0 0 0 .151-.13.26.26 0 0 0-.315-.364l-36.719 12.239a.262.262 0 0 0-.034.481.26.26 0 0 0 .199.014M545.086 223.529l36.719-12.239a.26.26 0 0 0 .164-.33.3.3 0 0 0-.049-.09.3.3 0 0 0-.08-.063.26.26 0 0 0-.2-.012l-36.719 12.24a.26.26 0 0 0-.154.13.257.257 0 0 0 .119.351c.062.03.134.035.2.013M547.035 229.388l36.719-12.24a.258.258 0 0 0 .15-.131.26.26 0 0 0 .014-.198.255.255 0 0 0-.329-.165l-36.718 12.239a.3.3 0 0 0-.09.05.24.24 0 0 0-.064.08.3.3 0 0 0-.028.099.3.3 0 0 0 .012.102.27.27 0 0 0 .334.164M572.665 190.739l5.99-1.997a.262.262 0 0 0 .132-.321.265.265 0 0 0-.298-.178l-5.744 1.914-2.085-5.949a.277.277 0 0 0-.335-.163.26.26 0 0 0-.145.135.27.27 0 0 0-.012.198l2.168 6.196a.265.265 0 0 0 .329.165"/></svg>
